X:282
T:Enrico
M:4/4
L:1/8
K:G
D2 | G2 BA GFGE | DEDC B,2 D2 | G2 AB cBAG | F2 d2 d2 B2 | 
G2 BA GFGE | DEDC B,2 D2 | E2 cB AGAF | G2 G2 G2 :| 
Bc | d2 dc BcBA | GAGF E2 E2 | cdcB ABAG | FGFE D2 D2 | 
G2 G2 FAFD | G2 G2 FAFD | G2 B2 AGAF | G2 G2 G2 :| 

